X: 185
T: The Mouse In The Mug
M: 6/8
C:Tom McElvogue
L: 1/8
R: jig
K:Gmaj
"G"~G3 EGD | ~G3 Bdg |"C(Em)" ege "G"dBG |"D" ~A3 "G"BAB |
"G"~G3 EGD | ~G3 Bdg |"C(Em)" ~e3 "G"dBG |1 "D"AGF "G"GBA :|2AGF GBd||
"G"g2b "D"agf |"Em" ege edB |"G" d2g edB | BAG "D"ABd |
"G"gab "D"agf |"Em" ege edB |"G" deg edB |"D" AGF "G"GBd |
"G"g2b "D"agf |"Em" ege edB |"G" d2g edB | BAG "D"ABA |
"G"~G3 EGD | ~G3 Bdg |"C(Em)" ~e3 "G"dBG |"D" AGF "G"G3 |]


